X: 08231
M: C
L: 1/8
K: F
V: 1 clef=treble middle=B
c2ag gfef | c2ag gfdf | cdcB A2Ac | cBAB G2AB | c2ag gfdf |
c2ag gfdf | cdcB ABAG | FAcf "Fine"F2 H:| EF | GABc B2AG | ABcd c2BA | (3(GAB) AG (3(FGA) GF |
(3(EFG) (3(FED) C2EF | GABc B2AG | Afef gfef | Bg^fg A=fef | edcd cB"D.C."AB :|
V: 2 clef=bass middle=d
z2 |:\
c2[c'2e2] [c'2f2][c'2f2] | c2c'2 c2z2 |\
c2[c'2e2] [c'2e2]z2 | c2[c'2f2] [c'2f2]z2 |\
e2c2 f2d2 |
g2G2 c2z2 |\
c2[c'2e2] [c'2e2]z2 | c2[c'2f2] [c'2f2]z2 |\
e2e'2 f2f'2 | c2c'2 c2"D.C."z2 :|

